static/img/ai-cta-with-icon.svg

<svg width="192" height="32" viewBox="0 0 192 32" fill="none" xmlns="http://www.w3.org/2000/svg">
<rect x="0.5" y="0.5" width="191" height="31" rx="3.5" fill="white"/>
<rect x="0.5" y="0.5" width="191" height="31" rx="3.5" stroke="#BFBFC3"/>
<g clip-path="url(#clip0_37332_16)">
<g clip-path="url(#clip1_37332_16)">
<path fill-rule="evenodd" clip-rule="evenodd" d="M14.75 8.75C14.75 8.33579 14.4142 8 14 8C13.5858 8 13.25 8.33579 13.25 8.75V9.25L12.75 9.25C12.3358 9.25 12 9.58579 12 10C12 10.4142 12.3358 10.75 12.75 10.75H13.25V11.25C13.25 11.6642 13.5858 12 14 12C14.4142 12 14.75 11.6642 14.75 11.25V10.75H15.25C15.6642 10.75 16 10.4142 16 10C16 9.58579 15.6642 9.25 15.25 9.25H14.75V8.75ZM26.3949 14.8684L26.3949 14.8683L26.3807 14.8302L25.831 13.3902L25.6589 13.9194L25.3219 14.9555H24.2324L19.768 14.9555H18.6785L18.3415 13.9194L18.1697 13.3912L17.6187 14.8357L17.6148 14.846L17.6107 14.8562L17.5986 14.8865C17.482 15.1981 17.4684 15.5396 17.56 15.8599C17.6522 16.1827 17.846 16.4655 18.1108 16.6665L18.1121 16.6674L18.1149 16.6696L18.1255 16.6775L18.1359 16.6857L18.1392 16.6882L20.613 18.5501L20.6177 18.5537L20.6177 18.5537L21.8503 19.4891L21.8508 19.4894L21.9975 19.6008L22.1442 19.4894L22.1447 19.4891L23.3773 18.5537L23.3828 18.5496L23.3828 18.5496L25.8739 16.6771L25.8788 16.6733L25.8877 16.6665C26.1532 16.4655 26.3474 16.1825 26.4399 15.8593C26.5324 15.536 26.5178 15.1912 26.3983 14.8772L26.3949 14.8684ZM26.7863 17.8678L24.2841 19.7486L23.0514 20.684L22.3026 21.2527C22.2147 21.3193 22.1076 21.3554 21.9975 21.3554C21.8874 21.3554 21.7803 21.3193 21.6924 21.2527L20.9436 20.684L19.711 19.7486L17.2264 17.8786L17.2125 17.8678L17.2064 17.8631C16.6813 17.4654 16.2992 16.9071 16.1177 16.2722C15.9363 15.6374 15.9652 14.9605 16.2002 14.3436L16.2172 14.3011L17.4309 11.1196L17.4986 10.9421L17.5422 10.8278L17.7149 10.3751L17.7322 10.3298L17.8497 10.0218C17.8827 9.93783 17.9415 9.86657 18.0176 9.81836C18.0744 9.78204 18.1389 9.75955 18.2059 9.75268C18.2729 9.74581 18.3405 9.75476 18.4035 9.77881C18.4664 9.80286 18.5229 9.84135 18.5684 9.8912C18.6139 9.94105 18.6471 10.0009 18.6655 10.0659L18.7647 10.3709L18.7688 10.3835L18.9622 10.9782L19.0212 11.1594L19.768 13.4555L24.2324 13.4555L24.9793 11.1592L25.0382 10.9782L25.2316 10.3835L25.2356 10.3712L25.3349 10.0659C25.3531 10.0008 25.3863 9.94084 25.4318 9.89089C25.4773 9.84094 25.5338 9.80239 25.5968 9.77832C25.6597 9.75425 25.7275 9.74534 25.7945 9.75229C25.8615 9.75925 25.926 9.78187 25.9828 9.81836C26.0589 9.86657 26.1177 9.93783 26.1507 10.0218L26.2673 10.3271L26.2856 10.3752L26.4571 10.8245L26.5018 10.9415L26.5696 11.1192L27.784 14.3003L27.8002 14.3436C28.0349 14.9605 28.0637 15.6373 27.882 16.2719C27.7004 16.9066 27.3183 17.4648 26.7932 17.8624L26.7863 17.8678ZM15.5 19C15.9142 19 16.25 19.3358 16.25 19.75V20.75H17.25C17.6642 20.75 18 21.0858 18 21.5C18 21.9142 17.6642 22.25 17.25 22.25H16.25V23.25C16.25 23.6642 15.9142 24 15.5 24C15.0858 24 14.75 23.6642 14.75 23.25L14.75 22.25H13.75C13.3358 22.25 13 21.9142 13 21.5C13 21.0858 13.3358 20.75 13.75 20.75H14.75V19.75C14.75 19.3358 15.0858 19 15.5 19Z" fill="#737278"/>
</g>
</g>
<path d="M36.4912 21.1777C34.2832 21.1777 32.9092 20.043 32.793 18.334H34.126C34.2285 19.4893 35.2949 20.0156 36.4912 20.0156C37.8721 20.0156 38.9248 19.291 38.9248 18.2041C38.9248 17.2197 37.9951 16.8574 36.9082 16.5498L35.6777 16.2012C34.0371 15.7363 33.0801 14.8955 33.0801 13.542C33.0801 11.8193 34.6113 10.6777 36.5801 10.6777C38.5898 10.6777 39.9912 11.8467 40.0527 13.3848H38.7812C38.665 12.3936 37.749 11.8262 36.5391 11.8262C35.2197 11.8262 34.3447 12.5234 34.3447 13.4805C34.3447 14.5469 35.541 14.9229 36.2861 15.1279L37.3047 15.4082C38.3984 15.709 40.1895 16.3242 40.1895 18.2246C40.1895 19.8926 38.8428 21.1777 36.4912 21.1777ZM44.6533 21.0957C43.1084 21.0957 42.0625 20.1455 42.0625 18.2109V13.3574H43.293V18.1084C43.293 19.2842 43.9561 19.9883 45.0225 19.9883C46.1162 19.9883 46.9434 19.2432 46.9434 17.9375V13.3574H48.1807V21H46.9912V19.1475H47.1553C46.6836 20.583 45.7744 21.0957 44.6533 21.0957ZM50.3477 21V13.3574H51.5439L51.5508 15.0664H51.4551C51.7627 13.8291 52.6992 13.2207 53.6904 13.2207C54.7979 13.2207 55.502 13.9727 55.707 15.0801H55.543C55.8164 13.9385 56.8281 13.2207 58.0449 13.2207C59.3711 13.2207 60.4512 14.0752 60.4512 15.8457V21H59.2139V15.8799C59.2139 14.7793 58.4961 14.3418 57.6758 14.3418C56.6436 14.3418 56.0146 15.0459 56.0146 16.0098V21H54.7842V15.7568C54.7842 14.9092 54.1484 14.3418 53.2871 14.3418C52.3916 14.3418 51.5781 14.9707 51.5781 16.1875V21H50.3477ZM62.6113 21V13.3574H63.8076L63.8145 15.0664H63.7188C64.0264 13.8291 64.9629 13.2207 65.9541 13.2207C67.0615 13.2207 67.7656 13.9727 67.9707 15.0801H67.8066C68.0801 13.9385 69.0918 13.2207 70.3086 13.2207C71.6348 13.2207 72.7148 14.0752 72.7148 15.8457V21H71.4775V15.8799C71.4775 14.7793 70.7598 14.3418 69.9395 14.3418C68.9072 14.3418 68.2783 15.0459 68.2783 16.0098V21H67.0479V15.7568C67.0479 14.9092 66.4121 14.3418 65.5508 14.3418C64.6553 14.3418 63.8418 14.9707 63.8418 16.1875V21H62.6113ZM77.0146 21.1777C75.5654 21.1777 74.4102 20.3301 74.4102 18.8262C74.4102 17.0762 75.9688 16.7549 77.3838 16.5771C78.7441 16.4062 79.3457 16.4473 79.3457 15.8799V15.8389C79.3457 14.8887 78.8057 14.3418 77.7461 14.3418C76.6455 14.3418 76.0508 14.9297 75.8115 15.4629L74.6289 15.0732C75.2168 13.6855 76.5293 13.2617 77.7119 13.2617C78.7373 13.2617 80.5762 13.5762 80.5762 15.9619V21H79.3662V19.9609H79.2842C79.0244 20.501 78.3066 21.1777 77.0146 21.1777ZM77.2266 20.0908C78.5869 20.0908 79.3457 19.1748 79.3457 18.2383V17.1787C79.1406 17.418 77.8008 17.5547 77.3291 17.6162C76.4336 17.7324 75.6475 18.0195 75.6475 18.8877C75.6475 19.6807 76.3105 20.0908 77.2266 20.0908ZM82.7363 21V13.3574H83.9258V14.5332H84.0078C84.2881 13.7607 85.0811 13.248 85.9902 13.248C86.168 13.248 86.4688 13.2617 86.6123 13.2686V14.5059C86.5371 14.4922 86.2021 14.4375 85.874 14.4375C84.7734 14.4375 83.9668 15.1826 83.9668 16.2148V21H82.7363ZM88.2324 21V13.3574H89.4629V21H88.2324ZM88.8545 12.1064C88.3896 12.1064 88 11.7441 88 11.293C88 10.8418 88.3896 10.4795 88.8545 10.4795C89.3262 10.4795 89.7158 10.8418 89.7158 11.293C89.7158 11.7441 89.3262 12.1064 88.8545 12.1064ZM91.4043 21V20.084L95.6904 14.5742V14.499H91.541V13.3574H97.2764V14.335L93.1133 19.7832V19.8584H97.4131V21H91.4043ZM102.369 21.1641C100.154 21.1641 98.7871 19.5918 98.7871 17.2402C98.7871 14.8955 100.141 13.2617 102.226 13.2617C103.846 13.2617 105.555 14.2598 105.555 17.083V17.5957H99.6211V16.5566H104.892L104.317 16.9395C104.317 15.4355 103.606 14.3555 102.226 14.3555C100.845 14.3555 100.031 15.4971 100.031 16.7412V17.4316C100.031 19.1338 100.975 20.0703 102.376 20.0703C103.278 20.0703 103.955 19.6738 104.242 18.8945L105.432 19.2227C105.076 20.3779 103.935 21.1641 102.369 21.1641ZM114.366 21.1641C112.288 21.1641 110.887 19.585 110.887 17.2266C110.887 14.834 112.288 13.2617 114.366 13.2617C115.843 13.2617 117.046 14.041 117.463 15.374L116.28 15.709C116.055 14.9229 115.371 14.3623 114.366 14.3623C112.842 14.3623 112.138 15.7021 112.138 17.2266C112.138 18.7305 112.842 20.0635 114.366 20.0635C115.392 20.0635 116.089 19.4824 116.314 18.6553L117.49 18.9902C117.08 20.3506 115.863 21.1641 114.366 21.1641ZM122.364 21.1641C120.286 21.1641 118.885 19.585 118.885 17.2266C118.885 14.834 120.286 13.2617 122.364 13.2617C124.449 13.2617 125.857 14.834 125.857 17.2266C125.857 19.585 124.449 21.1641 122.364 21.1641ZM122.364 20.0635C123.909 20.0635 124.613 18.7305 124.613 17.2266C124.613 15.709 123.909 14.3623 122.364 14.3623C120.84 14.3623 120.136 15.7021 120.136 17.2266C120.136 18.7305 120.84 20.0635 122.364 20.0635ZM127.648 21V13.3574H128.845L128.852 15.0664H128.756C129.063 13.8291 130 13.2207 130.991 13.2207C132.099 13.2207 132.803 13.9727 133.008 15.0801H132.844C133.117 13.9385 134.129 13.2207 135.346 13.2207C136.672 13.2207 137.752 14.0752 137.752 15.8457V21H136.515V15.8799C136.515 14.7793 135.797 14.3418 134.977 14.3418C133.944 14.3418 133.315 15.0459 133.315 16.0098V21H132.085V15.7568C132.085 14.9092 131.449 14.3418 130.588 14.3418C129.692 14.3418 128.879 14.9707 128.879 16.1875V21H127.648ZM139.912 21V13.3574H141.108L141.115 15.0664H141.02C141.327 13.8291 142.264 13.2207 143.255 13.2207C144.362 13.2207 145.066 13.9727 145.271 15.0801H145.107C145.381 13.9385 146.393 13.2207 147.609 13.2207C148.936 13.2207 150.016 14.0752 150.016 15.8457V21H148.778V15.8799C148.778 14.7793 148.061 14.3418 147.24 14.3418C146.208 14.3418 145.579 15.0459 145.579 16.0098V21H144.349V15.7568C144.349 14.9092 143.713 14.3418 142.852 14.3418C141.956 14.3418 141.143 14.9707 141.143 16.1875V21H139.912ZM155.389 21.1641C153.174 21.1641 151.807 19.5918 151.807 17.2402C151.807 14.8955 153.16 13.2617 155.245 13.2617C156.865 13.2617 158.574 14.2598 158.574 17.083V17.5957H152.641V16.5566H157.911L157.337 16.9395C157.337 15.4355 156.626 14.3555 155.245 14.3555C153.864 14.3555 153.051 15.4971 153.051 16.7412V17.4316C153.051 19.1338 153.994 20.0703 155.396 20.0703C156.298 20.0703 156.975 19.6738 157.262 18.8945L158.451 19.2227C158.096 20.3779 156.954 21.1641 155.389 21.1641ZM161.568 16.4199V21H160.338V13.3574H161.521L161.527 15.21H161.356C161.821 13.8018 162.71 13.2617 163.865 13.2617C165.41 13.2617 166.456 14.2119 166.456 16.1465V21H165.219V16.249C165.219 15.0732 164.562 14.3691 163.496 14.3691C162.396 14.3691 161.568 15.1143 161.568 16.4199ZM171.631 13.3574V14.4102H167.68V13.3574H171.631ZM168.828 11.5391H170.059V19.0176C170.059 19.7012 170.312 20.002 170.961 20.002C171.118 20.002 171.385 19.9609 171.59 19.9199L171.843 20.959C171.59 21.0479 171.241 21.0957 170.927 21.0957C169.607 21.0957 168.828 20.3643 168.828 19.1133V11.5391ZM175.664 21.1641C174.092 21.1641 172.998 20.4668 172.725 19.1475L173.894 18.8672C174.112 19.708 174.734 20.084 175.65 20.084C176.717 20.084 177.4 19.5576 177.4 18.9287C177.4 18.4023 177.031 18.0537 176.279 17.876L175.008 17.5752C173.62 17.2471 172.957 16.5635 172.957 15.4902C172.957 14.1777 174.16 13.2617 175.787 13.2617C177.359 13.2617 178.187 14.0273 178.535 15.1006L177.421 15.3877C177.209 14.8408 176.778 14.3076 175.794 14.3076C174.885 14.3076 174.201 14.7793 174.201 15.415C174.201 15.9824 174.591 16.2969 175.486 16.5088L176.642 16.7822C178.029 17.1104 178.679 17.8008 178.679 18.8467C178.679 20.1865 177.455 21.1641 175.664 21.1641Z" fill="#303030"/>
<defs>
<clipPath id="clip0_37332_16">
<rect width="20" height="16" fill="white" transform="translate(8 8)"/>
</clipPath>
<clipPath id="clip1_37332_16">
<rect width="16" height="16" fill="white" transform="translate(12 8)"/>
</clipPath>
</defs>
</svg>

<svg xmlns="http://www.w3.org/2000/svg" width="192" height="32" fill="none"><rect width="191" height="31" x=".5" y=".5" fill="#fff" rx="3.5"/><rect width="191" height="31" x=".5" y=".5" stroke="#BFBFC3" rx="3.5"/><g clip-path="url(#a)"><g clip-path="url(#b)"><path fill="#737278" fill-rule="evenodd" d="M14.75 8.75a.75.75 0 0 0-1.5 0v.5h-.5a.75.75 0 0 0 0 1.5h.5v.5a.75.75 0 0 0 1.5 0v-.5h.5a.75.75 0 0 0 0-1.5h-.5v-.5Zm11.645 6.118-.014-.038-.55-1.44-.172.53-.337 1.036h-6.644l-.337-1.037-.171-.528-.551 1.445-.004.01-.004.01-.012.03a1.557 1.557 0 0 0 .512 1.78l.001.001.003.003.01.007.01.009.004.002 2.474 1.862.005.004 1.232.935.147.112.147-.112 1.233-.935.006-.004 2.49-1.873.006-.004.009-.006a1.558 1.558 0 0 0 .51-1.79l-.003-.009Zm.391 3-2.502 1.88-1.233.936-.748.569a.505.505 0 0 1-.61 0l-.75-.569-1.232-.935-2.485-1.87-.014-.011-.006-.005a3.058 3.058 0 0 1-1.006-3.52l.017-.042 1.214-3.181.068-.178.043-.114.173-.453.017-.045.118-.308a.425.425 0 0 1 .356-.27.43.43 0 0 1 .46.314l.099.305.004.012.193.595.06.181.746 2.296h4.464l.747-2.296.06-.18.193-.595.004-.013.099-.305a.433.433 0 0 1 .648-.248c.076.049.135.12.168.204l.116.305.019.048.171.45.045.117.068.177 1.214 3.181.016.044a3.057 3.057 0 0 1-1.007 3.518l-.007.006ZM15.5 19a.75.75 0 0 1 .75.75v1h1a.75.75 0 0 1 0 1.5h-1v1a.75.75 0 0 1-1.5 0v-1h-1a.75.75 0 0 1 0-1.5h1v-1a.75.75 0 0 1 .75-.75Z" clip-rule="evenodd"/></g></g><path fill="#303030" d="M36.491 21.178c-2.208 0-3.582-1.135-3.698-2.844h1.333c.102 1.155 1.169 1.682 2.365 1.682 1.381 0 2.434-.725 2.434-1.812 0-.984-.93-1.347-2.017-1.654l-1.23-.349c-1.64-.465-2.598-1.306-2.598-2.659 0-1.723 1.531-2.864 3.5-2.864 2.01 0 3.411 1.169 3.473 2.707H38.78c-.116-.991-1.032-1.559-2.242-1.559-1.32 0-2.194.697-2.194 1.654 0 1.067 1.196 1.443 1.941 1.648l1.019.28c1.093.301 2.885.916 2.885 2.817 0 1.668-1.347 2.953-3.699 2.953Zm8.162-.082c-1.545 0-2.59-.95-2.59-2.885v-4.854h1.23v4.751c0 1.176.663 1.88 1.73 1.88 1.093 0 1.92-.745 1.92-2.05v-4.58h1.238V21h-1.19v-1.852h.164c-.471 1.435-1.38 1.948-2.502 1.948ZM50.348 21v-7.643h1.196l.007 1.71h-.096c.308-1.238 1.244-1.846 2.235-1.846 1.108 0 1.812.752 2.017 1.86h-.164c.273-1.143 1.285-1.86 2.502-1.86 1.326 0 2.406.854 2.406 2.625V21h-1.237v-5.12c0-1.1-.718-1.538-1.538-1.538-1.032 0-1.661.704-1.661 1.668V21h-1.23v-5.243c0-.848-.637-1.415-1.498-1.415-.895 0-1.709.629-1.709 1.845V21h-1.23Zm12.263 0v-7.643h1.197l.007 1.71h-.096c.307-1.238 1.244-1.846 2.235-1.846 1.108 0 1.812.752 2.017 1.86h-.164c.273-1.143 1.285-1.86 2.502-1.86 1.326 0 2.406.854 2.406 2.625V21h-1.237v-5.12c0-1.1-.718-1.538-1.538-1.538-1.033 0-1.662.704-1.662 1.668V21h-1.23v-5.243c0-.848-.636-1.415-1.497-1.415-.896 0-1.71.629-1.71 1.845V21h-1.23Zm14.404.178c-1.45 0-2.605-.848-2.605-2.352 0-1.75 1.559-2.071 2.974-2.249 1.36-.17 1.962-.13 1.962-.697v-.041c0-.95-.54-1.497-1.6-1.497-1.1 0-1.695.588-1.934 1.12l-1.183-.389c.588-1.388 1.9-1.811 3.083-1.811 1.025 0 2.864.314 2.864 2.7V21h-1.21v-1.04h-.082c-.26.541-.977 1.218-2.27 1.218Zm.212-1.087c1.36 0 2.119-.916 2.119-1.853v-1.06c-.205.24-1.545.377-2.017.438-.895.116-1.681.404-1.681 1.272 0 .793.663 1.203 1.579 1.203Zm5.51.909v-7.643h1.189v1.176h.082c.28-.772 1.073-1.285 1.982-1.285.178 0 .479.014.622.02v1.238a4.646 4.646 0 0 0-.738-.069c-1.1 0-1.907.746-1.907 1.778V21h-1.23Zm5.495 0v-7.643h1.23V21h-1.23Zm.623-8.894c-.465 0-.855-.362-.855-.813 0-.451.39-.813.855-.813.471 0 .86.362.86.813 0 .451-.389.813-.86.813ZM91.404 21v-.916l4.285-5.51V14.5h-4.149v-1.142h5.735v.978l-4.163 5.448v.075h4.3V21h-6.009Zm10.964.164c-2.215 0-3.582-1.572-3.582-3.924 0-2.344 1.354-3.978 3.439-3.978 1.62 0 3.329.998 3.329 3.821v.513h-5.934v-1.04h5.271l-.575.383c0-1.504-.711-2.584-2.091-2.584-1.381 0-2.195 1.142-2.195 2.386v.69c0 1.703.944 2.64 2.345 2.64.902 0 1.579-.397 1.866-1.177l1.19.329c-.356 1.155-1.497 1.941-3.063 1.941Zm11.997 0c-2.078 0-3.479-1.579-3.479-3.937 0-2.393 1.401-3.965 3.479-3.965 1.477 0 2.68.779 3.097 2.112l-1.183.335c-.225-.786-.909-1.347-1.914-1.347-1.524 0-2.228 1.34-2.228 2.865 0 1.503.704 2.837 2.228 2.837 1.026 0 1.723-.582 1.948-1.409l1.176.335c-.41 1.36-1.627 2.174-3.124 2.174Zm7.998 0c-2.078 0-3.479-1.579-3.479-3.937 0-2.393 1.401-3.965 3.479-3.965 2.085 0 3.493 1.572 3.493 3.965 0 2.358-1.408 3.937-3.493 3.937Zm0-1.1c1.545 0 2.249-1.334 2.249-2.837 0-1.518-.704-2.865-2.249-2.865-1.524 0-2.228 1.34-2.228 2.865 0 1.503.704 2.837 2.228 2.837Zm5.284.936v-7.643h1.197l.007 1.71h-.096c.307-1.238 1.244-1.846 2.235-1.846 1.108 0 1.812.752 2.017 1.86h-.164c.273-1.143 1.285-1.86 2.502-1.86 1.326 0 2.406.854 2.406 2.625V21h-1.237v-5.12c0-1.1-.718-1.538-1.538-1.538-1.033 0-1.662.704-1.662 1.668V21h-1.23v-5.243c0-.848-.636-1.415-1.497-1.415-.896 0-1.709.629-1.709 1.845V21h-1.231Zm12.264 0v-7.643h1.196l.007 1.71h-.095c.307-1.238 1.244-1.846 2.235-1.846 1.107 0 1.811.752 2.016 1.86h-.164c.274-1.143 1.286-1.86 2.502-1.86 1.327 0 2.407.854 2.407 2.625V21h-1.238v-5.12c0-1.1-.717-1.538-1.538-1.538-1.032 0-1.661.704-1.661 1.668V21h-1.23v-5.243c0-.848-.636-1.415-1.497-1.415-.896 0-1.709.629-1.709 1.845V21h-1.231Zm15.477.164c-2.215 0-3.582-1.572-3.582-3.924 0-2.344 1.353-3.978 3.438-3.978 1.62 0 3.329.998 3.329 3.821v.513h-5.933v-1.04h5.27l-.574.383c0-1.504-.711-2.584-2.092-2.584-1.381 0-2.194 1.142-2.194 2.386v.69c0 1.703.943 2.64 2.345 2.64.902 0 1.579-.397 1.866-1.177l1.189.329c-.355 1.155-1.497 1.941-3.062 1.941Zm6.179-4.744V21h-1.23v-7.643h1.183l.006 1.853h-.171c.465-1.408 1.354-1.948 2.509-1.948 1.545 0 2.591.95 2.591 2.884V21h-1.237v-4.751c0-1.176-.657-1.88-1.723-1.88-1.1 0-1.928.745-1.928 2.05Zm10.063-3.063v1.053h-3.951v-1.053h3.951Zm-2.803-1.818h1.231v7.479c0 .683.253.984.902.984.157 0 .424-.041.629-.082l.253 1.039a2.964 2.964 0 0 1-.916.137c-1.32 0-2.099-.732-2.099-1.983V11.54Zm6.836 9.625c-1.572 0-2.666-.697-2.939-2.017l1.169-.28c.218.841.84 1.217 1.756 1.217 1.067 0 1.75-.526 1.75-1.155 0-.527-.369-.875-1.121-1.053l-1.271-.3c-1.388-.329-2.051-1.012-2.051-2.086 0-1.312 1.203-2.228 2.83-2.228 1.572 0 2.4.765 2.748 1.839l-1.114.287c-.212-.547-.643-1.08-1.627-1.08-.909 0-1.593.471-1.593 1.107 0 .567.39.882 1.285 1.094l1.156.273c1.387.328 2.037 1.019 2.037 2.065 0 1.34-1.224 2.317-3.015 2.317Z"/><defs><clipPath id="a"><path fill="#fff" d="M8 8h20v16H8z"/></clipPath><clipPath id="b"><path fill="#fff" d="M12 8h16v16H12z"/></clipPath></defs></svg>
